X:155
T: Soldatenabschied (2-57) S. 179
N: P0930
O: Lothringen
S: PINCK, Louis: Verklingende Weisen, Bd 2, Metz 1928]
R: Soldatenlied, Abschied, Liebe]
M: 4/4
L: 1/8
K: E
 | B2B2=G2B2 | AA=G2A2E2 | z2
=GFE2A2 | =GGF2E2=D2 | z2
=DD=G2DD | =G2=D2G2A2 | B4
A2B2 | =GFE2DEF2 | E4z4

@@@ Tune index: 7705
